source/img/decor/contacts-phone-icon.svg

<svg width="90" height="90" viewBox="0 0 90 90" fill="none" xmlns="http://www.w3.org/2000/svg">
<circle cx="45" cy="45" r="45" fill="#121936"/>
<path fill-rule="evenodd" clip-rule="evenodd" d="M45 30.1724C39.4071 30.1724 33.8008 31.1177 31.7666 33.0019C30.0788 34.5651 29.5162 37.3266 29.3266 39.0751C29.3266 39.0751 29.3004 39.2479 29.3004 39.3222C29.3004 40.0079 29.889 40.5578 30.6087 40.5578C30.6937 40.5578 33.8402 40.3168 35.7371 40.1686C35.7828 40.1623 35.8288 40.1562 35.8744 40.1439C36.581 40.1255 37.1502 39.5817 37.1502 38.9083L37.1566 36.4741C37.1566 35.7203 37.8044 35.1148 38.6025 35.1148H51.3974C52.1957 35.1148 52.8436 35.7203 52.8436 36.4741L52.85 38.9083C52.85 39.5817 53.4192 40.1255 54.1257 40.1439C54.171 40.1563 54.217 40.1623 54.2632 40.1686C56.1603 40.3167 59.3067 40.5578 59.3915 40.5578C60.1108 40.5578 60.6998 40.0079 60.6998 39.3222C60.6998 39.2479 60.6737 39.0751 60.6737 39.0751C60.4839 37.3266 59.922 34.5652 58.2341 33.0019C56.1993 31.1177 50.5929 30.1724 45 30.1724ZM45 46.2355C43.5543 46.2355 42.3834 47.3413 42.3834 48.7067C42.3834 50.0721 43.5543 51.1778 45 51.1778C46.4457 51.1778 47.6166 50.0721 47.6166 48.7067C47.6166 47.3413 46.4457 46.2355 45 46.2355ZM43.0376 40.6751V39.1306C43.0376 38.2781 42.3048 37.5861 41.4023 37.5861C40.4997 37.5861 39.7669 38.2782 39.7669 39.1306V40.6751L30.942 49.5779C30.3339 50.1402 29.9544 50.9245 29.9544 51.7897V54.2671C29.9544 55.6325 31.1254 56.7383 32.571 56.7383H33.2252V58.2829C33.2252 59.1354 33.958 59.8273 34.8606 59.8273C35.7632 59.8273 36.496 59.1354 36.496 58.2829V56.7383H53.5041V58.2829C53.5041 59.1354 54.2366 59.8273 55.1396 59.8273C56.0422 59.8273 56.7748 59.1354 56.7748 58.2829V56.7383H57.4289C58.8746 56.7383 60.0455 55.6325 60.0455 54.2671V51.7897C60.0455 50.9245 59.6661 50.1401 59.0579 49.5779L50.2333 40.6751V39.1306C50.2333 38.2781 49.5005 37.5861 48.5979 37.5861C47.6953 37.5861 46.9626 38.2782 46.9626 39.1306V40.6751H43.0376ZM45 43.7643C47.8914 43.7643 50.2333 45.976 50.2333 48.7067C50.2333 51.4375 47.8915 53.6494 45 53.6494C42.1086 53.6494 39.7668 51.4375 39.7668 48.7067C39.7668 45.976 42.1086 43.7643 45 43.7643Z" fill="#FFD74B"/>
</svg>

<svg width="90" height="90" fill="none" xmlns="http://www.w3.org/2000/svg"><circle cx="45" cy="45" r="45" fill="#121936"/><path fill-rule="evenodd" clip-rule="evenodd" d="M45 30.17c-5.6 0-11.2.95-13.23 2.83-1.7 1.57-2.25 4.33-2.44 6.08l-.03.24c0 .69.59 1.24 1.3 1.24.1 0 3.24-.24 5.14-.4.04 0 .09 0 .13-.02.71-.01 1.28-.56 1.28-1.23v-2.44c0-.75.65-1.36 1.45-1.36h12.8c.8 0 1.44.61 1.44 1.36l.01 2.44c0 .67.57 1.22 1.28 1.23.04.02.09.02.13.03l5.13.39c.72 0 1.31-.55 1.31-1.24l-.03-.24c-.19-1.75-.75-4.51-2.44-6.08-2.03-1.88-7.64-2.83-13.23-2.83zm0 16.07a2.55 2.55 0 00-2.62 2.47A2.55 2.55 0 0045 51.18c1.45 0 2.62-1.1 2.62-2.47A2.55 2.55 0 0045 46.24zm-1.96-5.56v-1.55a1.6 1.6 0 00-1.64-1.54c-.9 0-1.63.69-1.63 1.54v1.55l-8.83 8.9a3 3 0 00-.99 2.21v2.48a2.55 2.55 0 002.62 2.47h.66v1.54c0 .86.73 1.55 1.63 1.55.9 0 1.64-.7 1.64-1.55v-1.54h17v1.54c0 .86.74 1.55 1.64 1.55.9 0 1.63-.7 1.63-1.55v-1.54h.66c1.44 0 2.62-1.1 2.62-2.47v-2.48a3 3 0 00-1-2.21l-8.82-8.9v-1.55a1.6 1.6 0 00-1.63-1.54c-.9 0-1.64.69-1.64 1.54v1.55h-3.92zM45 43.76c2.9 0 5.23 2.22 5.23 4.95S47.9 53.65 45 53.65c-2.9 0-5.23-2.21-5.23-4.94 0-2.73 2.34-4.95 5.23-4.95z" fill="#FFD74B"/></svg>
